Dominus_Funeral/22/places/folder-video.svg

<svg xmlns="http://www.w3.org/2000/svg" width="24" height="24" version="1"><defs><linearGradient id="b"><stop offset="0"/><stop offset="1" stop-opacity="0"/></linearGradient><linearGradient id="a"><stop offset="0" stop-color="#edb763"/><stop offset=".5" stop-color="#de7f32"/><stop offset="1" stop-color="#d24413"/></linearGradient><linearGradient id="c"><stop offset="0" stop-color="#f6b2ee"/><stop offset=".262" stop-color="#d979cd"/><stop offset="1" stop-color="#753da6"/></linearGradient></defs><path d="M20.95 8.045l-1.14-.292.436-.804c.078-.141.134-.638-.33-.756L6.307 2.705C4.9 2.313 4 3.287 3.758 4.21l-.793 3.087a2.092 2.092 0 0 0 1.505 2.542l3.84.982a2.306 2.306 0 0 0 1.192 2.086l-1.882 4.51H3.563V14.96a.522.522 0 1 0-1.045 0v5.96a.522.522 0 1 0 1.045 0v-2.458H7.97a.52.52 0 0 0 .482-.322l2.064-4.944c.17.045.941-.103 1.305-.318.381-.226.681-.549.882-.934l3.839.982c.348.07.496-.085.589-.256l.563-1.034s2.276.578 2.316.578a.525.525 0 0 0 .508-.392l.808-3.143a.518.518 0 0 0-.374-.634z" fill="#1a1a1a"/></svg>

<?xml version="1.0" encoding="UTF-8" standalone="no"?>
<svg
   xmlns:dc="http://purl.org/dc/elements/1.1/"
   xmlns:cc="http://creativecommons.org/ns#"
   xmlns:rdf="http://www.w3.org/1999/02/22-rdf-syntax-ns#"
   xmlns:svg="http://www.w3.org/2000/svg"
   xmlns="http://www.w3.org/2000/svg"
   xmlns:sodipodi="http://sodipodi.sourceforge.net/DTD/sodipodi-0.dtd"
   xmlns:inkscape="http://www.inkscape.org/namespaces/inkscape"
   width="24"
   height="24"
   version="1"
   id="svg4"
   sodipodi:docname="folder-video.svg"
   inkscape:version="0.92.4 (5da689c313, 2019-01-14)">
  <metadata
     id="metadata10">
    <rdf:RDF>
      <cc:Work
         rdf:about="">
        <dc:format>image/svg+xml</dc:format>
        <dc:type
           rdf:resource="http://purl.org/dc/dcmitype/StillImage" />
        <dc:title></dc:title>
      </cc:Work>
    </rdf:RDF>
  </metadata>
  <defs
     id="defs8" />
  <sodipodi:namedview
     pagecolor="#ffffff"
     bordercolor="#666666"
     borderopacity="1"
     objecttolerance="10"
     gridtolerance="10"
     guidetolerance="10"
     inkscape:pageopacity="0"
     inkscape:pageshadow="2"
     inkscape:window-width="1112"
     inkscape:window-height="480"
     id="namedview6"
     showgrid="false"
     inkscape:zoom="9.8333333"
     inkscape:cx="1.0677966"
     inkscape:cy="12"
     inkscape:window-x="0"
     inkscape:window-y="25"
     inkscape:window-maximized="0"
     inkscape:current-layer="svg4" />
  <path
     d="M 20.95,8.04 19.81,7.75 20.25,6.95 C 20.32,6.81 20.38,6.31 19.92,6.19 L 6.3,2.7 C 4.9,2.31 4,3.3 3.76,4.21 L 2.96,7.3 a 2.1,2.1 0 0 0 1.51,2.54 l 3.84,0.98 a 2.3,2.3 0 0 0 1.2,2.09 l -1.89,4.5 H 3.56 v -2.45 a 0.52,0.52 0 1 0 -1.04,0 v 5.96 a 0.52,0.52 0 1 0 1.04,0 v -2.46 h 4.41 a 0.52,0.52 0 0 0 0.48,-0.32 l 2.07,-4.94 c 0.17,0.04 0.94,-0.1 1.3,-0.32 0.38,-0.23 0.68,-0.55 0.88,-0.94 l 3.84,0.99 c 0.35,0.07 0.5,-0.09 0.6,-0.26 l 0.55,-1.03 2.32,0.57 a 0.53,0.53 0 0 0 0.5,-0.39 L 21.33,8.68 A 0.52,0.52 0 0 0 20.95,8.05 Z"
     id="path2"
     inkscape:connector-curvature="0"
     style="fill:#1a1a1a" />
</svg>
